X: 210
T: Mountains of Mourne
M:3/4
R:waltz
L:1/8
Z:Alf Warnock - alf0@rogers.com
K:G
D2|:"G"D2 B3B|"D"B2 A3B|"C"A2 G3F|G4 "D7"FE|
"G"E2 D3D|"D7"D2 E2 F2|"C"A2 G3F|"G"G4 D2:|
"D7"D2 c3c|"Am"c2 d3c|"D7"c2 B3A|"G"B4zD|
"G"D2 G2 B2|"Bm"d2 c3B|"A7"B2 A3G|"D7"A4zD||
"G"D2 B2 B2|"D"B2 A2 A2|"C"A2 G3F|G4 "D7"FE|
"G"E2 D3D|"D"D2 E2 F2|"C"A2 G3F|"G"G4|]
